X:168
T:Orange in Bloom
M:3/4
L:1/4
K:G
D | "C"E G E | "G"D G3/A/ | B d B | "D"A3/c/ B/A/ | "Em"G E E | "G"D G3/A/ | "G"B "D"G F | G2 :|
"D"A | "G"B3/A/ B/c/ | "Em7"d2 B | "D7"A G A | "G"B c "D"d | "Em"e "G"d B | "D7"A G A | "Em"B A G | "C"E2 "D"D | 
"C"E G E | "G"D G3/A/ | B d B | "D"A3/c/ B/A/ | "Em"G E E | "G"D G3/A/ | B "D"G F | G2 |]

%%newpage

